X: 0
T: Little Liza Jane
B: canberra pickers and fiddlers
B: songs
B: traditional songs
B: tunes
M:4/4
L:1/8
Q: 1/4=170
K:A
V:1 
ef | a2 f2 e3 e | fecB  A2 ef | a2 f2 e2 c2 | f6
ef | a2 e2 e3 e | fecB  A4    | cBAF  E2 F2 | A4 A2 :|
z2 | Bccc  c3 A | B2 A6       | Bccc  cB A2 | F6 
E2 | F A3  B3 A | B c3  B3  A | cBAF  E2 F2 | A4 A2 :|]
W: There’s a house in Baltimore
W: Sixteen stories high
W: And every story in that house
W: Was full of chicken pie
W: 
W: Oh Liza poor girl
W: Oh Liza Jane
W: Oh Liza poor girl
W: She died on the train
W: 
W: I went up on the mountain
W: To give my horn a blow
W: And every girl in the countryside
W: Said yonder comes my beau
W: 
W: When I was a little boy
W: I liked to go in swimming
W: Now I am a bigger boy
W: I like to go with women
W: 
W: I wish I had a candy box
W: To put my sweetheart in
W: I’d take her out and kiss her twice
W: And put her back again
W: 
W: One day I set a-courting
W: A girl as dear as life
W: When a woman she said to me
W: Mr.Jones
W: how is your wife
% abcbook-tune_id 63ae8f1cae27b563b216a2b9
% abcbook-tune_composer_id 
% abcbook-link-0 https://www.youtube.com/watch?v=2X7TdfMd3ns
% abcbook-boost 5
% abcbook-difficulty 0
% abcbook-tags canberra pickers and fiddlers,old time tunes,steve ryan,© free
% abcbook-tablature 
% abcbook-transpose 
% abcbook-tuning AEAE
% abcbook-lastupdated 1696198013888
% abcbook-src-url https://tunebook.net/scrape/traditional%20songs.abc
% abcbook-soundfonts 
% abcbook-repeats 1


